X:1
T:Abide with Me
T:Louis D. Eichhorn
T:Abide with Me
T:Public Domain
T:Public Domain
T:Public Domain
C:Louis D. Eichhorn
Z:Public Domain
%%score ( 1 2 ) ( 3 4 )
L:1/8
M:4/4
K:A
V:1 treble 
V:2 treble 
V:3 bass 
V:4 bass 
V:1
 [CA][CG][CF] | [A,C]3 [CE] [DF][FA][=FB][FA] | [Ec]4- [Ec][Ec][Fd][Ec] | %3
w: 1.~A- bide with|me; I need Thee ev- ery|day, * To lead me|
w: 2.~Be with me,|Lord, wher- e’er my path may|lead; * Ful- fill Thy|
w: 3.~A- bide with|me, my Lord, and when at|last, * This earth and|
 [DF]3 [DA] [^Dc][DB][DB][DF] | [DG]4- [DG][CA][CG][CF] | [A,C]3 [CE] [DF][FA][=FB][FA] | %6
w: on thro’ all the wea- ry|way; * When storms sur-|round, and on- ly clouds I|
w: word, sup- ply my ev- ery|need; * Help me to|live each day more close to|
w: all its wea- ry cares are|past; * I’ll pray no|more that Thou a- bide with|
 [Ec]4- [Ec][Ee][=Ge][Fd] | [Ec][CE][CA][Ec] [DB]3 [CA] | [CA]4- [CA] ||"^Refrain" AGA | %10
w: see, * Lord, be my|com- fort, and a- bide with|me. *|A- bide with|
w: Thee, * And, oh, dear|Lord, I pray, a- bide with|me. *||
w: me, * For then, at|last, I shall a- bide with|Thee. *||
 (z FFF [Fd])AB^B | z EEE [Ec]EAc | z cAE [De]cAd | z DEA [GB]EAB | z EEA [=Gc]cde | %15
w: * * * * me from morn|* * * * eve, For with-|* * * * Thee I can-|* * * * live; A- bide|* * * * me when night|
w: |||||
w: |||||
 z A,A,A, [A,F]Adf | z AGF [Ge][Ac] [GB]>[EA] | ECDE [CA] |] %18
w: * * * * nigh, For with-|* * * * Thee, I dare||
w: |||
w: |||
V:2
 x3 | x8 | x8 | x8 | x8 | x8 | x8 | x8 | x5 || x3 | d4- x4 | c4- x4 | e4- x4 | B4- x4 | c4- x4 | %15
w: ||||||||||till|out|not|with|is|
 F4- x4 | e4- x4 | A4- x |] %18
w: out|not|die.|
V:3
 [A,,E,][A,,E,][A,,A,] | [A,,E,]3 [A,,A,] [D,A,][D,A,][D,A,][D,A,] | %2
w: ~ ~ ~|~ ~ ~ ~ ~ ~|
 [A,,A,]4- [A,,A,][A,,A,][A,,A,][A,,A,] | [D,A,]3 [D,F,] [B,,F,][B,,A,][B,,F,][B,,B,] | %4
w: ~ * ~ ~ ~|~ ~ ~ ~ ~ ~|
 [E,B,]4- [E,B,][A,,E,][A,,E,][A,,A,] | [A,,E,]3 [A,,A,] [D,A,][D,A,][D,A,][D,A,] | %6
w: ~ * ~ ~ ~|~ ~ ~ ~ ~ ~|
 [A,,A,]4- [A,,A,][B,,G,][C,G,][D,A,] | [E,A,][E,A,][E,A,][E,A,] [E,G,]3 E, | [A,,E,]4- [A,,E,] || %9
w: ~ * ~ ~ ~|~ ~ ~ ~ ~ ~|~ *|
 A,G,A, | z D,F,A, [D,D]A,B,^B, | z A,,C,E, [A,C]E,A,C | z A,,C,E, [A,E]CA,D | %13
w: ~ ~ ~|A- bide with me ~ ~ ~|from morn till eve ~ ~ ~|For * with- out Thee ~ *|
 z E,G,B, [E,B,]E,A,B, | z A,,C,E, [A,C]CDE | z D,D,D, [D,F,]A,DF | %16
w: * ~ ~ I can- not live|~ ~ ~ A- bide with me|~ ~ ~ when night is nigh|
 z CB,A, [E,B,E][E,E] [E,D]>[A,,C] | CE,F,A, [A,,E,] |] %18
w: * * ~ ~ ~ For with-|Thee * * ~ ~|
V:4
 x3 | x8 | x8 | x8 | x8 | x8 | x8 | x7 E, | x5 || x3 | D4- x4 | C4- x4 | E4- x4 | B,4- x4 | %14
w: |||||||~|||~|~|~|~|
 C4- x4 | F,4- x4 | E4- x4 | A,,4- x |] %18
w: ~|~|out|~|

